X: 21869
T: Kiss Me Fast, My Minnie's Coming
R: jig
M: 6/8
K: Dmixolydian
|:D2A F2A|E2c GEC|D2A F2A|D2A AFD|
GBG FAF|E2F GEC|d^cB AFd|D2A AFD:|
|:d2g (4fgaf|e2f gec|d2g (4fgaf|d2a afd|
gbg faf|e2f gec|d^cB AFd|D2A AFD:|

